!!! OTL: Literature46
!!! Chapter: 5
!!! Section: I
!!! Page: 354
!!! Mode: 
!!! Encoder: DJB
**kern
*staff1
*I"Piano
=1-
*clefG2
*k[b-e-]
*g:
*M4/4
4r
4r
4r
4d/
=2
4g/
4g/
4a/
4f/
=3
4g/
8g/L
8f/J
4d/
4cc\
=4
4.dd\
8cc\
4b-\
8cc\L
8cc\J
=5
2.dd\
4cc\
=6
4dd\
8ee-\L
8dd\J
4cc\
8dd\L
8cc\J
=7
4b-\
4b-\
4d/
8f/L
8f/J
=8
8g/
4b-\
8g/
4b-\
4a/
=9
!!linebreak:original
2.g/
4r
==
*-
